public/AchtDev_Logo.svg

<svg width="83" height="45" viewBox="0 0 83 45" fill="none" xmlns="http://www.w3.org/2000/svg">
<path d="M43.3215 44.1959L39.9443 37.4387L43.3215 34.0586L46.7016 37.4387L43.3215 44.1959Z" fill="#5C59C2"/>
<path d="M55.9744 21.7274V18.4985C55.5922 18.393 55.19 18.3359 54.7707 18.3359C52.235 18.3359 50.1755 20.3954 50.1755 22.9311C50.1755 25.4697 52.235 27.5291 54.7707 27.5291C57.3093 27.5291 59.3687 25.4697 59.3687 22.9311C59.3687 22.5147 59.3117 22.1125 59.2062 21.7274H55.9744Z" fill="#5C59C2"/>
<path d="M30.2946 21.7274V18.4985C30.6796 18.393 31.0818 18.3359 31.4983 18.3359C34.0369 18.3359 36.0963 20.3954 36.0963 22.9311C36.0963 25.4697 34.0369 27.5291 31.4983 27.5291C28.9625 27.5291 26.9031 25.4697 26.9031 22.9311C26.9031 22.5147 26.9601 22.1125 27.0657 21.7274H30.2946Z" fill="#5C59C2"/>
<path d="M57.5002 34.6428C51.61 34.6428 46.818 29.8508 46.818 23.9578C46.818 18.0677 51.61 13.2757 57.5002 13.2757C63.3932 13.2757 68.1852 18.0677 68.1852 23.9578C68.1852 29.8508 63.3932 34.6428 57.5002 34.6428ZM82.1276 3.77441C73.9185 9.18537 57.5002 9.73303 57.5002 9.73303C49.6562 9.73303 43.2754 16.1138 43.2754 23.9578C43.2754 31.8047 49.6562 38.1855 57.5002 38.1855C65.3471 38.1855 71.7278 31.8047 71.7278 23.9578C71.7278 20.1927 70.2532 16.7641 67.8543 14.217C76.8792 11.299 82.1276 3.77441 82.1276 3.77441Z" fill="#5C59C2"/>
<path d="M24.6246 38.4158C16.655 38.4158 10.1687 31.9295 10.1687 23.9571C10.1687 15.9876 16.655 9.50126 24.6246 9.50126C32.597 9.50126 39.0833 15.9876 39.0833 23.9571C39.0833 31.9295 32.597 38.4158 24.6246 38.4158ZM24.6246 5.95576C24.6246 5.95576 8.20914 5.41096 0 0C0 0 4.82907 6.92557 13.1922 10.0632C9.18465 13.3691 6.62322 18.3693 6.62322 23.9571C6.62322 33.8834 14.7011 41.9613 24.6246 41.9613C34.5508 41.9613 42.6288 33.8834 42.6288 23.9571C42.6288 14.0308 34.5508 5.95576 24.6246 5.95576Z" fill="#5C59C2"/>
</svg>

<svg width="83" height="45" viewBox="0 0 83 45" fill="none" xmlns="http://www.w3.org/2000/svg">
    <path
        d="m43.322 44.196-3.378-6.757 3.377-3.38 3.38 3.38zm12.652-22.469v-3.229a4.5 4.5 0 0 0-1.203-.162 4.6 4.6 0 0 0-4.596 4.595 4.6 4.6 0 0 0 4.596 4.598 4.6 4.6 0 0 0 4.435-5.802zm-25.679 0v-3.229a4.598 4.598 0 0 1 5.802 4.433 4.6 4.6 0 0 1-4.599 4.598 4.598 4.598 0 0 1-4.432-5.802z"
        fill="#5C59C2" />
    <path
        d="M57.5 34.643c-5.89 0-10.682-4.792-10.682-10.685 0-5.89 4.792-10.682 10.682-10.682 5.893 0 10.685 4.792 10.685 10.682 0 5.893-4.792 10.685-10.685 10.685M82.128 3.774C73.918 9.185 57.5 9.733 57.5 9.733c-7.844 0-14.225 6.38-14.225 14.225 0 7.847 6.381 14.228 14.225 14.228 7.847 0 14.228-6.381 14.228-14.228a14.17 14.17 0 0 0-3.874-9.741C76.88 11.299 82.128 3.774 82.128 3.774M24.625 38.416c-7.97 0-14.456-6.486-14.456-14.459 0-7.97 6.486-14.456 14.456-14.456 7.972 0 14.458 6.487 14.458 14.456 0 7.973-6.486 14.459-14.458 14.459m0-32.46S8.209 5.41 0 0c0 0 4.83 6.926 13.192 10.063-4.007 3.306-6.569 8.306-6.569 13.894 0 9.926 8.078 18.004 18.002 18.004 9.926 0 18.004-8.078 18.004-18.004S34.55 5.956 24.625 5.956"
        fill="#5C59C2" />
</svg>
